src/lib/packages/icons/src/assets/filled/message-text.svg

<svg width="24" height="24" viewBox="0 0 24 24" fill="none" xmlns="http://www.w3.org/2000/svg">
<path d="M18 3H6C4 3 3 4 3 6V21L6 18H18C20 18 21 17 21 15V6C21 4 20 3 18 3ZM13 13.25H8C7.586 13.25 7.25 12.914 7.25 12.5C7.25 12.086 7.586 11.75 8 11.75H13C13.414 11.75 13.75 12.086 13.75 12.5C13.75 12.914 13.414 13.25 13 13.25ZM16 9.25H8C7.586 9.25 7.25 8.914 7.25 8.5C7.25 8.086 7.586 7.75 8 7.75H16C16.414 7.75 16.75 8.086 16.75 8.5C16.75 8.914 16.414 9.25 16 9.25Z" fill="currentColor"/>
</svg>

<svg xmlns="http://www.w3.org/2000/svg" width="24" height="24" fill="none"><path fill="currentColor" d="M18 3H6C4 3 3 4 3 6v15l3-3h12c2 0 3-1 3-3V6c0-2-1-3-3-3Zm-5 10.25H8a.75.75 0 0 1 0-1.5h5a.75.75 0 0 1 0 1.5Zm3-4H8a.75.75 0 0 1 0-1.5h8a.75.75 0 0 1 0 1.5Z"/></svg>
